icons/op-view-split-viewer-table-24.svg

<svg width="24" height="24" viewBox="0 0 24 24" fill="none" xmlns="http://www.w3.org/2000/svg">
<path d="M20 8.63169V7.00003L15.0426 7V8.63169H20Z" fill="black"/>
<path d="M8.95197 7.05443L13.3942 9.35368L8.95197 11.7348L4.5094 9.35368L8.95197 7.05443Z" fill="black"/>
<path d="M9.65946 16.9201L13.9037 14.73V10.6363L9.65946 12.915V16.9201Z" fill="black"/>
<path d="M8.24459 12.915L4 10.6363V14.73L8.24459 16.9201V12.915Z" fill="black"/>
<path d="M20 17V15.3684H15.0426V17H20Z" fill="black"/>
<path d="M20 14.9405V13.2972H15.0426V14.9405H20Z" fill="black"/>
<path d="M20 11.2377V12.8694H15.0426V11.2377H20Z" fill="black"/>
<path d="M20 9.16657V10.7982H15.0426V9.16657H20Z" fill="black"/>
</svg>

<svg xmlns="http://www.w3.org/2000/svg" width="24" height="24" viewBox="0 0 24 24"><path d="M20 8.632V7h-4.957v1.632H20ZM8.952 7.054l4.442 2.3-4.442 2.381-4.443-2.381 4.443-2.3Zm.707 9.866 4.245-2.19v-4.094l-4.245 2.279v4.005Zm-1.414-4.005L4 10.636v4.094l4.245 2.19v-4.005ZM20 17v-1.632h-4.957V17H20Zm0-2.059v-1.644h-4.957v1.644H20Zm0-3.703v1.631h-4.957v-1.631H20Zm0-2.071v1.631h-4.957V9.167H20Z"/></svg>
